Sources/FrostedUI/Resources/Icons.xcassets/calendarPlus32.imageset/calendar-plus-32.svg

<svg width="32" height="32" viewBox="0 0 32 32" fill="none" xmlns="http://www.w3.org/2000/svg" data-fui-icon="true">
  <path
    d="M23.667 18.917C24.0811 18.9172 24.417 19.2529 24.417 19.667V23.25H28C28.4141 23.25 28.7498 23.5859 28.75 24C28.7499 24.4141 28.4141 24.75 28 24.75H24.417V28.334C24.4167 28.7478 24.0809 29.0838 23.667 29.084C23.253 29.084 22.9173 28.7479 22.917 28.334V24.75H19.333C18.919 24.7498 18.5831 24.414 18.583 24C18.5832 23.586 18.9191 23.2502 19.333 23.25H22.917V19.667C22.917 19.2528 23.2528 18.917 23.667 18.917ZM21.667 2.91699C22.0811 2.91717 22.417 3.25289 22.417 3.66699V5.58398H24.333C26.2199 5.58398 27.7498 7.11318 27.75 9V15C27.7499 15.4141 27.4141 15.75 27 15.75C26.5859 15.75 26.2501 15.4141 26.25 15V13.084H5.75V24.334C5.75031 25.3923 6.60863 26.25 7.66699 26.25H15C15.4141 26.25 15.7498 26.5859 15.75 27C15.7499 27.4141 15.4141 27.75 15 27.75H7.66699C5.78022 27.75 4.25031 26.2207 4.25 24.334V9C4.25018 7.11318 5.78013 5.58398 7.66699 5.58398H9.58301V3.66699C9.58301 3.25289 9.91894 2.91717 10.333 2.91699C10.7472 2.91699 11.083 3.25278 11.083 3.66699V5.58398H20.917V3.66699C20.917 3.25278 21.2528 2.91699 21.667 2.91699ZM7.66699 7.08398C6.60855 7.08398 5.75018 7.9416 5.75 9V11.584H26.25V9C26.2498 7.9416 25.3915 7.08398 24.333 7.08398H7.66699Z"
    fill="currentColor"
  />
</svg>

<svg xmlns="http://www.w3.org/2000/svg" width="32" height="32" fill="none" data-fui-icon="true" viewBox="0 0 32 32"><path fill="currentColor" d="M23.667 18.917a.75.75 0 0 1 .75.75v3.583H28a.75.75 0 0 1 0 1.5h-3.583v3.584a.75.75 0 0 1-1.5 0V24.75h-3.584a.75.75 0 0 1 0-1.5h3.584v-3.583a.75.75 0 0 1 .75-.75m-2-16a.75.75 0 0 1 .75.75v1.917h1.916A3.417 3.417 0 0 1 27.75 9v6a.75.75 0 0 1-1.5 0v-1.916H5.75v11.25c0 1.058.859 1.916 1.917 1.916H15a.75.75 0 0 1 0 1.5H7.667a3.417 3.417 0 0 1-3.417-3.416V9a3.417 3.417 0 0 1 3.417-3.416h1.916V3.667a.75.75 0 0 1 1.5 0v1.917h9.834V3.667a.75.75 0 0 1 .75-.75m-14 4.167A1.917 1.917 0 0 0 5.75 9v2.584h20.5V9a1.917 1.917 0 0 0-1.917-1.916z"/></svg>
